X:1
T:Tobin's Favourite
M:6/8
L:1/8
Q:190=1/4
K:D
DFAdcd|ecAcde|~f3gfg|ecAGFE|
DFAdcd|ecAcde|fafgec|edcd2z|
dfaagf|efgefg|~f3gfg|ecAGFE|
DFAdcd|ecAcde|fafgec|edcd2z|
